X:1
T:My Task
T:My Task
T:Emma Louise Hindle Ashford, 1902
T:Maude Louise Ray, 1902, & F. H. Pickup, 1913
T:Public Domain Courtesy of the Cyber Hymnal™
C:Emma Louise Hindle Ashford, 1902
Z:Public Domain
Z:Courtesy of the Cyber Hymnal™
%%score ( 1 2 ) ( 3 4 )
L:1/8
Q:1/4=100
M:4/4
K:Eb
V:1 treble 
V:2 treble 
V:3 bass 
V:4 bass 
V:1
 [EG] | [EG][EG][EG][B,G] [_CF][CF] [CG]>[CF] | B4- [DB]3 [DA] | %3
w: 1.~To|love some- one more dear- ly ev- ery|day, To help|
w: 2.~To|fol- low truth as blind men long for|light, To do|
w: 3.~And|then my Sav- ior by and by to|meet, When faith|
 [EG][EG][EG][EG] [G=A][GA] [^FB]>[FA] | [Gd]4- [Gd]3 [AB] x2 | %5
w: * a wan- dering child to find his|way, * To|
w: * my best from dawn of day till|night, * To|
w: * hath made her task on earth com-|plete, * And|
 [Ge]>[Ge] [Ge][Ge] [Fd][FG][FG][FG] | [=Ec]4- [Ec][Ec][Ec][Ec] | [Ec]>[EF] [EF]3 [DB][DB][DB] | %8
w: pon- der o’er a no- ble thought and|pray, * And smile when|even- ing falls, And smile when|
w: keep my heart fit for His ho- ly|sight, * And an- swer|when He calls, And an- swer|
w: lay my hom- age at the Mas- ter’s|feet, * With- in the|jas- per walls, With- in the|
 [_DB]>[DE] [DE]6 | [CE]4 [DF]3 E | [EG]7 |] %11
w: even- ing falls:|This is my|task.|
w: when He calls:|This is my|task.|
w: jas- per walls:|This crowns my|task.|
V:2
 x | x8 | B,2 ^C2 x4 | x8 | x10 | x8 | x8 | x8 | x8 | x7 E | x7 |] %11
V:3
 [E,B,] | [E,B,][E,B,][E,B,][E,B,] [E,A,][E,A,] [E,A,]>[E,A,] | G,4 [F,A,]3 [B,,B,] | %3
 [E,B,][E,B,][E,B,][E,B,] [C,E][C,E] [D,C]>[D,C] | B,4- (G,2 [F,B,]3) [F,B,] | %5
 [E,B,]>[E,B,] [E,B,][E,B,] [G,=B,][G,B,][G,B,][G,B,] | [C,B,]4- [C,B,][C,B,][C,B,][C,B,] | %7
 [F,=A,]>[F,A,] [F,A,]3 [B,,_A,][B,,A,][B,,A,] | [E,G,]>[E,G,] [E,G,]6 | [F,A,]4 [B,,A,]3 [E,G,] | %10
 [E,B,]7 |] %11
V:4
 x | x8 | (E,2 =E,2) x4 | x8 | G,,2 x8 | x8 | x8 | x8 | x8 | x8 | x7 |] %11

